src/constants/images/landingIcons/bitfinex.svg

<svg width="220" height="27" viewBox="0 0 220 27" fill="none" xmlns="http://www.w3.org/2000/svg">
<path d="M15.1761 22.2999H4.57795V16.5337H15.1761C17.8245 16.5337 19.1782 17.8287 19.1782 19.506C19.1782 21.123 17.854 22.2999 15.1761 22.2999ZM14.8316 13.4456H4.57795V8.58971H14.8316C17.6226 8.58971 18.7179 9.59559 18.7179 10.9736C18.7179 12.2385 17.4504 13.4456 14.8316 13.4456ZM17.539 14.9167C22.0037 14.7683 23.6158 12.5026 23.6158 10.0331C23.6134 7.32481 21.5114 5.08923 16.3846 5.08923H0V25.7425H16.8744C21.0783 25.7425 24.2188 23.9495 24.2188 20.0945C24.2188 17.3585 22.4615 15.0349 17.5365 14.9167H17.539ZM28.6417 5.08923V25.7425H33.2271V5.08923H28.6417ZM52.516 9.00212H62.6071V5.08923H37.869V9.00212H47.9479V25.7425H52.5258L52.516 9.00212ZM67.254 5.08923V25.7425H71.832V17.6955H82.5754V14.2981H71.832V8.65006H89.2848V5.08923H67.254ZM94.2245 5.08923V25.7425H98.8025V5.08923H94.2245ZM108.062 10.1186L123.235 25.74H128.419V5.08923H123.9V19.9763L109.327 5.08923H103.511V25.7425H108.062V10.1186ZM133.13 5.08923V25.7425H155.527V22.2722H137.708V16.594H148.392V13.3878H137.708V8.65006H155.532V5.08923H133.13ZM187.179 5.08923H181.132L173.416 12.3567L165.754 5.08923H159.62L170.391 15.2688L159.217 25.7425H165.266L173.357 18.123L181.42 25.7425H187.573L176.381 15.2386L187.179 5.08923Z" fill="white"/>
<path d="M218.824 1.06579C218.733 1.02555 209.291 -0.287126 199.958 5.84373C194.164 9.65854 193.396 15.2387 193.662 18.9604C207.236 17.4265 218.516 1.51089 218.824 1.06579ZM194.583 23.0946C195.749 25.1919 204.568 29.9472 212.375 23.3888C220.182 16.8305 219.528 4.8982 218.824 1.06579C218.577 1.62154 210.054 20.6931 194.583 23.0921" fill="#8CD867"/>
<path d="M218.824 1.06589C218.733 1.02817 209.291 -0.287017 199.958 5.84384C194.164 9.65865 193.396 15.2388 193.662 18.958C207.236 17.4266 218.516 1.511 218.824 1.06589Z" fill="#54B361"/>
</svg>

<svg width="220" height="27" fill="none" xmlns="http://www.w3.org/2000/svg"><path d="M15.176 22.3H4.578v-5.766h10.598c2.649 0 4.002 1.295 4.002 2.972 0 1.617-1.324 2.794-4.002 2.794zm-.344-8.854H4.578V8.59h10.254c2.79 0 3.886 1.006 3.886 2.384 0 1.264-1.268 2.472-3.886 2.472zm2.707 1.47c4.465-.148 6.077-2.413 6.077-4.883-.003-2.708-2.105-4.944-7.231-4.944H0v20.653h16.874c4.204 0 7.345-1.793 7.345-5.648 0-2.736-1.758-5.06-6.683-5.177h.003zM28.642 5.09v20.653h4.585V5.09h-4.585zm23.874 3.913h10.091V5.09H37.87v3.913h10.079v16.74h4.578l-.01-16.74zM67.254 5.09v20.653h4.578v-8.047h10.743v-3.397H71.832V8.65h17.453V5.09H67.254zm26.97 0v20.653h4.578V5.09h-4.578zm13.838 5.03l15.173 15.621h5.184V5.09H123.9v14.886L109.327 5.09h-5.816v20.654h4.551V10.118zm25.068-5.03v20.653h22.397v-3.47h-17.819v-5.678h10.684v-3.206h-10.684V8.65h17.824V5.09H133.13zm54.049 0h-6.047l-7.716 7.268-7.662-7.268h-6.134l10.771 10.18-11.174 10.473h6.049l8.091-7.619 8.063 7.62h6.153l-11.192-10.504 10.798-10.15z" fill="#fff"/><path d="M218.824 1.066c-.091-.04-9.533-1.353-18.866 4.778-5.794 3.815-6.562 9.395-6.296 13.116 13.574-1.534 24.854-17.45 25.162-17.894zm-24.241 22.029c1.166 2.097 9.985 6.852 17.792.294 7.807-6.558 7.153-18.49 6.449-22.323-.247.556-8.77 19.627-24.241 22.026" fill="#8CD867"/><path d="M218.824 1.066c-.091-.038-9.533-1.353-18.866 4.778-5.794 3.815-6.562 9.395-6.296 13.114 13.574-1.531 24.854-17.447 25.162-17.892z" fill="#54B361"/></svg>
